lib/flags/cv-cabo-verde.svg

<svg xmlns="http://www.w3.org/2000/svg" fill="none" aria-hidden="true" viewBox="0 0 42 30"><g id="Country=CV - Cabo Verde, Size=sm (36x24)" filter="url(#filter0_dd_91_28891)"><g clip-path="url(#clip0_91_28891)"><g id="flag"><mask id="mask0_91_28891" width="36" height="24" x="3" y="2" maskUnits="userSpaceOnUse" style="mask-type:alpha"><rect id="mask" width="36" height="24" x="3" y="2" fill="white"/></mask><g mask="url(#mask0_91_28891)"><g id="contents"><path id="background" fill="#4141DB" fill-rule="evenodd" d="M3 2V26H39V2H3Z" clip-rule="evenodd"/><mask id="mask1_91_28891" width="36" height="24" x="3" y="2" maskUnits="userSpaceOnUse" style="mask-type:alpha"><path id="background_2" fill="white" fill-rule="evenodd" d="M3 2V26H39V2H3Z" clip-rule="evenodd"/></mask><g mask="url(#mask1_91_28891)"><path id="bottom" fill="#F90000" stroke="#F7FCFF" stroke-width="2" d="M3 15H2V16V18V19H3H39H40V18V16V15H39H3Z"/><g id="Combined shape 1335" filter="url(#filter1_d_91_28891)"><path fill="#FFDE00" fill-rule="evenodd" d="M14.0203 12.2594L14.8369 11.7505L15.627 12.2594L15.3813 11.3538L16.0159 10.7798H15.2083L14.8357 10.0408L14.518 10.7798H13.5706L14.296 11.3538L14.0203 12.2594ZM17.3953 13.8594L18.2119 13.3505L19.002 13.8594L18.7563 12.9538L19.3909 12.3798H18.5833L18.2107 11.6408L17.893 12.3798H16.9456L17.671 12.9538L17.3953 13.8594ZM20.9119 15.7505L20.0953 16.2594L20.371 15.3538L19.6457 14.7798H20.593L20.9108 14.0408L21.2833 14.7798H22.0909L21.4564 15.3538L21.702 16.2594L20.9119 15.7505ZM20.0953 20.2594L20.9119 19.7505L21.702 20.2594L21.4564 19.3538L22.0909 18.7798H21.2833L20.9108 18.0408L20.593 18.7798H19.6457L20.371 19.3538L20.0953 20.2594ZM18.2119 22.1505L17.3953 22.6594L17.671 21.7537L16.9456 21.1798H17.893L18.2107 20.4408L18.5833 21.1798H19.3909L18.7563 21.7537L19.002 22.6594L18.2119 22.1505ZM14.0203 24.2594L14.8369 23.7505L15.627 24.2594L15.3813 23.3538L16.0159 22.7798H15.2083L14.8357 22.0408L14.518 22.7798H13.5706L14.296 23.3538L14.0203 24.2594ZM11.4619 22.1505L10.6453 22.6594L10.921 21.7537L10.1956 21.1798H11.143L11.4607 20.4408L11.8333 21.1798H12.6409L12.0063 21.7537L12.252 22.6594L11.4619 22.1505ZM7.94521 20.2594L8.76183 19.7505L9.55196 20.2594L9.3063 19.3538L9.94084 18.7798H9.13325L8.76069 18.0408L8.44295 18.7798H7.49561L8.22091 19.3538L7.94521 20.2594ZM8.76183 15.7505L7.94521 16.2594L8.22091 15.3538L7.49561 14.7798H8.44295L8.76069 14.0408L9.13325 14.7798H9.94084L9.3063 15.3538L9.55196 16.2594L8.76183 15.7505ZM10.6453 13.8594L11.4619 13.3505L12.252 13.8594L12.0063 12.9538L12.6409 12.3798H11.8333L11.4607 11.6408L11.143 12.3798H10.1956L10.921 12.9538L10.6453 13.8594Z" clip-rule="evenodd"/></g></g></g></g></g></g></g><defs><filter id="filter0_dd_91_28891" width="42" height="30" x="0" y="0" color-interpolation-filters="sRGB" filterUnits="userSpaceOnUse"><feFlood flood-opacity="0" result="BackgroundImageFix"/><feColorMatrix in="SourceAlpha" result="hardAlpha" values="0 0 0 0 0 0 0 0 0 0 0 0 0 0 0 0 0 0 127 0"/><feOffset dy="1"/><feGaussianBlur stdDeviation="1"/><feColorMatrix values="0 0 0 0 0.0627451 0 0 0 0 0.0941176 0 0 0 0 0.156863 0 0 0 0.06 0"/><feBlend in2="BackgroundImageFix" result="effect1_dropShadow_91_28891"/><feColorMatrix in="SourceAlpha" result="hardAlpha" values="0 0 0 0 0 0 0 0 0 0 0 0 0 0 0 0 0 0 127 0"/><feOffset dy="1"/><feGaussianBlur stdDeviation="1.5"/><feColorMatrix values="0 0 0 0 0.0627451 0 0 0 0 0.0941176 0 0 0 0 0.156863 0 0 0 0.1 0"/><feBlend in2="effect1_dropShadow_91_28891" result="effect2_dropShadow_91_28891"/><feBlend in="SourceGraphic" in2="effect2_dropShadow_91_28891" result="shape"/></filter><filter id="filter1_d_91_28891" width="22.5952" height="22.2185" x="3.49561" y="6.04077" color-interpolation-filters="sRGB" filterUnits="userSpaceOnUse"><feFlood flood-opacity="0" result="BackgroundImageFix"/><feColorMatrix in="SourceAlpha" result="hardAlpha" values="0 0 0 0 0 0 0 0 0 0 0 0 0 0 0 0 0 0 127 0"/><feOffset/><feGaussianBlur stdDeviation="2"/><feColorMatrix values="0 0 0 0 0 0 0 0 0 0 0 0 0 0 0 0 0 0 0.24 0"/><feBlend in2="BackgroundImageFix" result="effect1_dropShadow_91_28891"/><feBlend in="SourceGraphic" in2="effect1_dropShadow_91_28891" result="shape"/></filter><clipPath id="clip0_91_28891"><rect width="36" height="24" x="3" y="2" fill="white" rx="2"/></clipPath></defs></svg>

<svg xmlns="http://www.w3.org/2000/svg" fill="none" aria-hidden="true" viewBox="0 0 42 30"><g filter="url(#a)"><g clip-path="url(#b)"><mask id="c" width="36" height="24" x="3" y="2" maskUnits="userSpaceOnUse" style="mask-type:alpha"><path fill="#fff" d="M3 2h36v24H3z"/></mask><g mask="url(#c)"><path fill="#4141DB" fill-rule="evenodd" d="M3 2v24h36V2H3Z" clip-rule="evenodd"/><mask id="d" width="36" height="24" x="3" y="2" maskUnits="userSpaceOnUse" style="mask-type:alpha"><path fill="#fff" fill-rule="evenodd" d="M3 2v24h36V2H3Z" clip-rule="evenodd"/></mask><g mask="url(#d)"><path fill="#F90000" stroke="#F7FCFF" stroke-width="2" d="M3 15H2v4h38v-4H3Z"/><g filter="url(#e)"><path fill="#FFDE00" fill-rule="evenodd" d="m14.02 12.26.817-.51.79.51-.246-.906.635-.574h-.808l-.372-.74-.318.74h-.947l.725.574-.276.905Zm3.375 1.6.817-.51.79.51-.246-.906.635-.574h-.808l-.372-.74-.318.74h-.947l.725.574-.276.905Zm3.517 1.89-.817.51.276-.906-.725-.574h.947l.318-.74.372.74h.808l-.635.574.246.905-.79-.508Zm-.817 4.51.817-.51.79.51-.246-.906.635-.574h-.808l-.372-.74-.318.74h-.947l.725.574-.276.905Zm-1.883 1.89-.817.51.276-.906-.725-.574h.947l.318-.74.372.74h.808l-.635.574.246.905-.79-.508Zm-4.192 2.11.817-.51.79.51-.246-.906.635-.574h-.808l-.372-.74-.318.74h-.947l.725.574-.276.905Zm-2.558-2.11-.817.51.276-.906-.725-.574h.947l.318-.74.372.74h.808l-.635.574.246.905-.79-.508Zm-3.517-1.89.817-.51.79.51-.246-.906.635-.574h-.808l-.372-.74-.318.74h-.947l.725.574-.276.905Zm.817-4.51-.817.51.276-.906-.725-.574h.947l.318-.74.372.74h.808l-.635.574.246.905-.79-.508Zm1.883-1.89.817-.51.79.51-.246-.906.635-.574h-.808l-.372-.74-.318.74h-.947l.725.574-.276.905Z" clip-rule="evenodd"/></g></g></g></g></g><defs><filter id="a" width="42" height="30" x="0" y="0" color-interpolation-filters="sRGB" filterUnits="userSpaceOnUse"><feFlood flood-opacity="0" result="BackgroundImageFix"/><feColorMatrix in="SourceAlpha" result="hardAlpha" values="0 0 0 0 0 0 0 0 0 0 0 0 0 0 0 0 0 0 127 0"/><feOffset dy="1"/><feGaussianBlur stdDeviation="1"/><feColorMatrix values="0 0 0 0 0.0627451 0 0 0 0 0.0941176 0 0 0 0 0.156863 0 0 0 0.06 0"/><feBlend in2="BackgroundImageFix" result="effect1_dropShadow_91_28891"/><feColorMatrix in="SourceAlpha" result="hardAlpha" values="0 0 0 0 0 0 0 0 0 0 0 0 0 0 0 0 0 0 127 0"/><feOffset dy="1"/><feGaussianBlur stdDeviation="1.5"/><feColorMatrix values="0 0 0 0 0.0627451 0 0 0 0 0.0941176 0 0 0 0 0.156863 0 0 0 0.1 0"/><feBlend in2="effect1_dropShadow_91_28891" result="effect2_dropShadow_91_28891"/><feBlend in="SourceGraphic" in2="effect2_dropShadow_91_28891" result="shape"/></filter><filter id="e" width="22.595" height="22.218" x="3.496" y="6.041" color-interpolation-filters="sRGB" filterUnits="userSpaceOnUse"><feFlood flood-opacity="0" result="BackgroundImageFix"/><feColorMatrix in="SourceAlpha" result="hardAlpha" values="0 0 0 0 0 0 0 0 0 0 0 0 0 0 0 0 0 0 127 0"/><feOffset/><feGaussianBlur stdDeviation="2"/><feColorMatrix values="0 0 0 0 0 0 0 0 0 0 0 0 0 0 0 0 0 0 0.24 0"/><feBlend in2="BackgroundImageFix" result="effect1_dropShadow_91_28891"/><feBlend in="SourceGraphic" in2="effect1_dropShadow_91_28891" result="shape"/></filter><clipPath id="b"><rect width="36" height="24" x="3" y="2" fill="#fff" rx="2"/></clipPath></defs></svg>
